web/packages/design/src/ResourceIcon/assets/sparrow.svg

<svg width="72" height="72" viewBox="0 0 72 72" fill="none" xmlns="http://www.w3.org/2000/svg">
<path fill-rule="evenodd" clip-rule="evenodd" d="M47.3678 18.0428C48.0562 16.5441 49.0363 14.7822 50.3111 13.206C51.928 11.207 54.1859 9.46242 57.3436 9.09653C64.4408 8.27411 67.7818 13.0331 68.9973 14.9478C69.9349 16.3021 70.5976 17.1577 71.451 17.3994C71.7753 17.4737 71.975 17.7706 72 18.0923V20.047C72 20.4429 71.7005 20.7398 71.3261 20.7893C69.7539 20.9378 66.1601 21.7048 66.1601 25.5153C66.1601 27.1484 66.6592 28.4598 67.2583 29.9692L67.2923 30.0587C68.058 32.066 68.9303 34.3527 68.9303 37.9366C68.9303 48.6497 59.002 53.9234 38.5946 54.0664C37.7795 56.1155 37.1168 57.9477 36.6364 59.3399C43.3748 57.113 47.9916 60.4533 48.2163 60.6266L46.6689 62.6802C46.4693 62.5318 41.8274 59.2656 35.1141 62.7792C34.9144 62.903 34.7146 62.9524 34.4901 62.9524C34.1907 62.9524 33.8912 62.8535 33.6665 62.6555C33.2673 62.3338 33.0925 61.7896 33.2422 61.2946C33.2452 61.2859 33.2501 61.271 33.2566 61.2502C33.2638 61.2278 33.2732 61.1985 33.2848 61.1625C33.49 60.5184 34.3754 57.7396 35.7935 54.0921C24.9796 54.3444 16.4006 56.6584 10.9809 58.5975C5.32497 60.6055 2.01554 62.6379 1.43969 62.9915L1.42253 63.002L0 60.8493C1.25536 60.0439 14.771 51.7045 36.8354 51.5C37.5323 49.8222 38.3182 48.0407 39.1819 46.2505C39.2569 46.1021 39.3254 45.9597 39.3941 45.8175C39.4627 45.6752 39.5313 45.533 39.6062 45.3845H39.3567C32.257 45.7094 23.6466 46.1291 14.2956 49.3319C13.1534 49.8117 11.9981 50.2694 10.8312 50.7044L10.7962 50.652C10.6167 50.7261 10.4371 50.8012 10.2572 50.8775L9.23395 48.5021C10.7233 47.8679 12.1953 47.3086 13.6479 46.8144C34.0776 38.1489 44.5863 24.4387 47.3678 18.0428ZM57.6475 11.6748C63.1433 11.038 65.6 14.5513 66.834 16.3355C67.4329 17.2015 68.0318 18.0428 68.7806 18.7356C68.506 18.8346 68.2316 18.9336 67.932 19.0573C65.1369 20.245 63.5896 22.5461 63.5896 25.54C63.5896 27.6576 64.2075 29.2362 64.8529 30.8852L64.8623 30.9094C65.6111 32.8146 66.3598 34.7694 66.3598 37.9366C66.3598 41.2256 66.3598 51.0377 39.6597 51.4806C40.2392 50.1228 40.8726 48.7163 41.5528 47.3145C41.9022 46.5972 42.2517 45.879 42.6011 45.2112C50.138 44.7907 56.0027 43.8504 58.723 38.4068C59.5965 36.65 59.5216 34.4973 58.5234 32.9136C57.6 31.4538 56.0527 30.662 54.1311 30.662C49.8135 30.662 45.3962 34.72 40.9788 42.7369C40.4048 42.7616 39.8309 42.7863 39.2318 42.8112C34.9133 43.0035 30.0587 43.229 24.8069 44.0727C29.5007 41.3113 33.8249 38.1533 37.6347 34.6704C42.7628 29.9985 47.0355 24.6481 49.2658 20.1498C50.0773 18.5131 50.9974 16.5068 52.3537 14.83C53.6924 13.1748 55.3822 11.9373 57.6475 11.6748ZM54.1559 33.2354C51.1362 33.2354 47.6422 36.5015 44.0984 42.5389C50.5872 42.0441 54.5303 41.0295 56.402 37.2685C56.8762 36.3282 56.8514 35.0912 56.3272 34.2746C55.9029 33.6065 55.1792 33.2354 54.1559 33.2354Z" fill="#3ED0DA"/>
</svg>

<svg xmlns="http://www.w3.org/2000/svg" width="72" height="72" fill="none" viewBox="0 0 72 72"><path fill="#3ed0da" fill-rule="evenodd" d="M47.368 18.043c.688-1.499 1.668-3.26 2.943-4.837 1.617-1.999 3.875-3.744 7.033-4.11 7.097-.822 10.438 3.937 11.653 5.852.938 1.354 1.6 2.21 2.454 2.451.324.075.524.372.549.693v1.955c0 .396-.3.693-.674.742-1.572.149-5.166.916-5.166 4.726 0 1.633.5 2.945 1.098 4.454l.034.09c.766 2.007 1.638 4.294 1.638 7.878 0 10.713-9.928 15.986-30.335 16.13a123 123 0 0 0-1.959 5.273c6.739-2.227 11.356 1.113 11.58 1.287L46.67 62.68c-.2-.148-4.842-3.414-11.555.1-.2.123-.4.172-.624.172-.3 0-.599-.099-.824-.296a1.285 1.285 0 0 1-.41-1.406l.029-.087c.205-.645 1.09-3.423 2.509-7.07-10.814.251-19.393 2.565-24.813 4.504-5.656 2.008-8.965 4.04-9.541 4.395l-.017.01L0 60.849c1.255-.805 14.771-9.144 36.835-9.349a104 104 0 0 1 2.347-5.25c.075-.148.143-.29.212-.432s.137-.285.212-.433h-.25c-7.099.324-15.71.744-25.06 3.947q-1.715.72-3.465 1.372l-.035-.052-.539.225-1.023-2.375a63 63 0 0 1 4.414-1.688c20.43-8.665 30.938-22.375 33.72-28.771m10.28-6.368c5.495-.637 7.952 2.876 9.186 4.66.599.866 1.198 1.708 1.947 2.4-.275.1-.55.199-.849.322-2.795 1.188-4.342 3.49-4.342 6.483 0 2.118.617 3.696 1.263 5.345l.01.024c.748 1.906 1.497 3.86 1.497 7.028 0 3.289 0 13.1-26.7 13.544a95 95 0 0 1 1.893-4.166c.35-.718.699-1.436 1.048-2.104 7.537-.42 13.402-1.36 16.122-6.804.874-1.757.799-3.91-.2-5.493-.923-1.46-2.47-2.252-4.392-2.252-4.318 0-8.735 4.058-13.152 12.075-.574.025-1.148.05-1.747.074-4.319.193-9.173.418-14.425 1.262 4.694-2.762 9.018-5.92 12.828-9.403 5.128-4.672 9.4-10.022 11.63-14.52.812-1.637 1.732-3.643 3.089-5.32 1.338-1.655 3.028-2.893 5.294-3.155m-3.492 21.56c-3.02 0-6.514 3.267-10.058 9.304 6.49-.495 10.432-1.51 12.304-5.27.474-.94.45-2.178-.075-2.994-.424-.669-1.148-1.04-2.171-1.04" clip-rule="evenodd"/></svg>
